X:9304
T:Las Dancitas
R:Danza
C:Tradicional
S:Música Tradicional Asturiana, (C) Tello & Tito. Asturies, 2001.
S:http://pagina.de/MusTradAst <telloytito@asturies.org>
O:Silvamayor (Valdés)
A:Asturies
Z:ByD IDEA
M:3/8
L:1/8
Q:3/8=120
K:C
|: G2 A/G/|F2 E|G2 A/G/|F2 E|G2 A/G/|F2 G|FED|[1 C3 :|[2 C2 D/E/|
|: F F/E/ D/F/|E E/D/ C/E/|D D/C/ B,/D/|[1 G2 D/E/ :|[2 C2 D/E/|
|: F F/E/ D/F/|E E/D/ C/E/|D D/C/ B,/D/|[1 G2 D/E/ :|[2 C3||


